public/avatar/body/179.svg

<svg xmlns:xlink="http://www.w3.org/1999/xlink" height="82" width="84.85" xmlns="http://www.w3.org/2000/svg"><g transform="translate(37.4 42.25)"><use height="38" transform="translate(-11.95 -17.45)" width="32.05" xlink:href="#a"/><use height="38.95" transform="translate(-12.45 -17.95)" width="33.05" xlink:href="#b"/><use height="21.95" transform="translate(-16.1 3.45)" width="38.3" xlink:href="#c"/></g><defs><path d="M27.35 7.4q2.15 4.15 3.55 8.75 1.45 4.7 1.15 9.5-.35 4.95-4.2 8.1-3.8 3.2-8.75 4.05l-2.6.2q-3.6 0-7.05-1.15-4.65-1.6-7.1-5.5Q-.2 27.4.05 23q.2-4.4 2-9.3Q3.85 8.75 7 5.05 10.1 1.3 14.7.1l1.8-.1q1.9.05 3.7.8 4.75 2.05 7.15 6.6" fill="#ad7a4b" fill-rule="evenodd" transform="translate(-.05)" id="d"/><path d="M27.35 7.4Q24.95 2.85 20.2.8 17.55-.3 14.7.1 10.1 1.3 7 5.05q-3.15 3.7-4.95 8.65-1.8 4.9-2 9.3-.25 4.4 2.3 8.35 2.45 3.9 7.1 5.5 4.65 1.55 9.65.95 4.95-.85 8.75-4.05 3.85-3.15 4.2-8.1.3-4.8-1.15-9.5-1.4-4.6-3.55-8.75Z" fill="none" stroke="#170001" stroke-linecap="round" stroke-linejoin="round" transform="translate(.45 .5)" id="e"/><use height="38" width="32.05" xlink:href="#d" id="a"/><use height="38.95" width="33.05" xlink:href="#e" id="b"/><g id="c"><path d="m-9.3 11.95-4.2-1.75q-.6-2.7.4-5.5l.6-1.25Q-8.05 5.1-4.2 8.2q4.2-1.6 8.35.35Q6.45 7.5 9 7.5q2.35-.15 4.2.8 3.7-2.9 7.75-4.8.9.5.95 1.5l.15 1.85q.3 2.1.05 4.05-9.75 2.65-20.1 2.6l-5.3-.3q-3.05-.25-6-1.25m26.65 1.3.6-.45q.3-.25.65-.45l.2-.05-.55.5-.9.45m-.3 10.15q-3.8 1.7-8.15 1.8-4.85.45-9.85-.15l-3.5-.7-.65-2.45q-.6 1-1.45 1.7-1.1.9-2.55.45-1.7-.4-2.95-1.65l-.05-.05 1.45.05 1.3.65q1.3.45 2.3-.3l1.25-1.45.8-1.4 1.3 3.65q6.5 1.45 13.2.6l5.3-.8 2.25.05m4.3-17.15-.5-1.6-1.15.6Q16.2 7 13.3 9.45q-1.65-1-3.6-.95-3.05-.4-5.4 1.25-1.45-1-3.35-1.1-2.8-.4-5.3.7-3.5-2.9-7.75-4.4l-.5 1.1q-.6 1.6-.15 3.3 3.65 2.15 8 2.85l8.05.55 9.6-.7 8.3-1.6.15-4.2" fill="#30202d" fill-rule="evenodd" transform="translate(16.1 -3.45)"/><path d="M-12.75 9.35q-.45-1.7.15-3.3l.5-1.1q4.25 1.5 7.75 4.4 2.5-1.1 5.3-.7 1.9.1 3.35 1.1Q6.65 8.1 9.7 8.5q1.95-.05 3.6.95 2.9-2.45 6.4-4.2l1.15-.6.5 1.6q-2.1.15-3.55 1.8-1.7 2-4.2 3-4.8-2.7-9.3.4Q2.5 10.15.2 9.8q-2.3-.05-4.35 1.15l-1.45-.45-1.5-1.15q-2.25-2.6-5.5-3.05l-.15 3.05" fill="#d19dca" fill-rule="evenodd" transform="translate(16.1 -3.45)"/><path d="m21.35 6.25-.15 4.2-8.3 1.6-9.6.7-8.05-.55q-4.35-.7-8-2.85l.15-3.05q3.25.45 5.5 3.05l1.5 1.15 1.45.45Q-2.1 9.75.2 9.8q2.3.35 4.1 1.65 4.5-3.1 9.3-.4 2.5-1 4.2-3 1.45-1.65 3.55-1.8M9.5 24.15l-8.4-2.3q-3.85-1.2-7.05-3.45l-.3.65-.6-1.6 3.5 1.9q4 2.1 8.75 2.95l9.4 1.05-5.3.8M-6.65 19.7l-2.7 3.35-1.3-.65 1.3-.3.35-1.75 2.35-.65" fill="#8e3f87" fill-rule="evenodd" transform="translate(16.1 -3.45)"/><path d="m-6.25 19.05.3-.65q3.2 2.25 7.05 3.45l8.4 2.3q-6.7.85-13.2-.6L-5 19.9l-.8 1.4-1.25 1.45q-1 .75-2.3.3l2.7-3.35.3-.2.1-.45" fill="#b56ea8" fill-rule="evenodd" transform="translate(16.1 -3.45)"/><path d="m-9.35 12.4 1.15.7 1.8.6q3.3 1.1 6.95 1.4 4.1.15 8.35-.1 3.55.05 6.75-1.05l.5-.15 1.2-.55.9-.45.55-.5.8-.05.1.2-.25 3.2 1.75.4q.15 2.6-1.1 4.9l.95 1.7q-.65.8-1.85.75-1 .2-2.15 0l-2.25-.05-9.4-1.05q-4.75-.85-8.75-2.95l-3.5-1.9.6 1.6-.1.45-.3.2-2.35.65-.35 1.75-1.3.3-1.45-.05q-2.55-.45-3.85-2.65l-.1-.25 1.45-1.3-1.5-1.55q.4-.9 1.3-1.35 1.15-.45 2.1-1.35l1.05-1.05q1-.95 2.3-.45m28.45 8.25 1.1-3.3q0-.55-.55-.95-.55-.4-1.3-.4l.2-.85.4-2-.85.85-2.25 1.1-.95.15-2.45.55-9.85.45q-4.5-.05-8.9-1.45l-1.45-.45.45 1.5 2.15 1.6q3.9 2.65 8.35 3.6l7.55 1.25q4.55.35 8.95-.05l-.6-.65v-.95m-29.25-7.5-.7.1q-1.45 2.45-4 3.5l.75.6.9.45-1.6 1.75.4.55q1.6 1.95 4.25 1.3l.3-1.9 1.3-.15 1.2-.45-1.45-5.15-.7-.4-.65-.2" fill="#49022e" fill-rule="evenodd" transform="translate(16.1 -3.45)"/><path d="M19.1 21.6h-1.3l-8.9-.4L3 20q-4.9-1.05-8.75-4.1 3.3 1.85 6.95 2.9 4.45 1.3 9.05 1.9l2.55.3-.3-.05-.5-.05 6.7-.2.4-.05v.95m1.1-4.25q-2.7 1.35-5.7 1.75-3.9.55-7.95.05-6.6-1.05-12.85-3.9 3.65 1.45 7.55 2.35 4 .95 8.15.95l2.9-.25-.25.1 1.95.25q2.8-.1 4.25-2.45l-.65.25.75-.45q.75 0 1.3.4t.55.95m-1.65-2.2q-3.7 1.8-7.75 2.1l-9.4-.4q-4.8-.55-9.15-2.5l1.45.45q4.4 1.4 8.9 1.45l9.85-.45 2.45-.55.95-.15-3.55 1.15-.8.05q3.9.65 6.7-2.1l.65-.65-.75.45.85-.85-.4 2m-28.7 6.25q-2.65.65-4.25-1.3l-.4-.55 1.6-1.75-.9-.45-.75-.6q2.55-1.05 4-3.5l.7-.1q-.8 1.85-2.25 3.65l-.8 1 .8-.45 1.15-1q1-1.15 1.65-2.6-.25 2.45-1 4.7-.55 1.7-1.9 2.75l2.35.2m1.6-2.05-1.3.15.35-6.15.35 1.15q.7 2.4.6 4.85M-14 17.1q1.65-.6 2.2-2.35l-2.7 2.15.5.2m.1 3 2.55-3.35-3.05 2.85.5.5m4.4-.8.6-.2-.5-3.45-.1 3.65" fill="#ff6eba" fill-rule="evenodd" transform="translate(16.1 -3.45)"/><path d="m19.1 20.65-.4.05-6.7.2.5.05.3.05-2.55-.3q-4.6-.6-9.05-1.9-3.65-1.05-6.95-2.9Q-1.9 18.95 3 20l5.9 1.2 8.9.4h1.3l.6.65q-4.4.4-8.95.05L3.2 21.05q-4.45-.95-8.35-3.6l-2.15-1.6-.45-1.5q4.35 1.95 9.15 2.5l9.4.4q4.05-.3 7.75-2.1l-.2.85-.75.45-5.3 1.85-2.9.25q-4.15 0-8.15-.95-3.9-.9-7.55-2.35 6.25 2.85 12.85 3.9 4.05.5 7.95-.05 3-.4 5.7-1.75l-1.1 3.3m-29.25-7.5.65.2.7.4 1.45 5.15-1.2.45q.1-2.45-.6-4.85l-.35-1.15-.35 6.15-.3 1.9-2.35-.2q1.35-1.05 1.9-2.75.75-2.25 1-4.7-.65 1.45-1.65 2.6l-1.15 1-.8.45.8-1q1.45-1.8 2.25-3.65" fill="#c646b7" fill-rule="evenodd" transform="translate(16.1 -3.45)"/><path d="m12.3 18.3 5.3-1.85.65-.25Q16.8 18.55 14 18.65l-1.95-.25.25-.1m5.8-4.3.75-.45-.65.65q-2.8 2.75-6.7 2.1l.8-.05 3.55-1.15L18.1 14m-32 6.1-.5-.5 3.05-2.85-2.55 3.35m-.1-3-.5-.2 2.7-2.15q-.55 1.75-2.2 2.35m4.5 2.2.1-3.65.5 3.45-.6.2" fill="#ffe6ff" fill-rule="evenodd" transform="translate(16.1 -3.45)"/><path d="m6.8 8.5-.05.45" fill="none" stroke="#333" stroke-linecap="round" stroke-linejoin="round" stroke-width=".95"/></g></defs></svg>

<?xml version="1.0" encoding="UTF-8" standalone="no"?>
<svg xmlns:xlink="http://www.w3.org/1999/xlink" height="82.0px" width="84.85px" xmlns="http://www.w3.org/2000/svg">
  <g transform="matrix(1.0, 0.0, 0.0, 1.0, 37.4, 42.25)">
    <use height="38.0" transform="matrix(1.0, 0.0, 0.0, 1.0, -11.95, -17.45)" width="32.05" xlink:href="#sprite0"/>
    <use height="38.95" transform="matrix(1.0, 0.0, 0.0, 1.0, -12.45, -17.95)" width="33.05" xlink:href="#sprite1"/>
    <use height="21.95" transform="matrix(1.0, 0.0, 0.0, 1.0, -16.1, 3.45)" width="38.3" xlink:href="#shape2"/>
  </g>
  <defs>
    <g id="sprite0" transform="matrix(1.0, 0.0, 0.0, 1.0, -0.05, 0.0)">
      <use height="38.0" transform="matrix(1.0, 0.0, 0.0, 1.0, 0.05, 0.0)" width="32.05" xlink:href="#shape0"/>
    </g>
    <g id="shape0" transform="matrix(1.0, 0.0, 0.0, 1.0, -0.05, 0.0)">
      <path d="M27.35 7.4 Q29.5 11.55 30.9 16.15 32.35 20.85 32.05 25.65 31.7 30.6 27.85 33.75 24.05 36.95 19.1 37.8 L16.5 38.0 Q12.9 38.0 9.45 36.85 4.8 35.25 2.35 31.35 -0.2 27.4 0.05 23.0 0.25 18.6 2.05 13.7 3.85 8.75 7.0 5.05 10.1 1.3 14.7 0.1 L16.5 0.0 Q18.4 0.05 20.2 0.8 24.95 2.85 27.35 7.4" fill="#ad7a4b" fill-rule="evenodd" stroke="none"/>
    </g>
    <g id="sprite1" transform="matrix(1.0, 0.0, 0.0, 1.0, 0.45, 0.5)">
      <use height="38.95" transform="matrix(1.0, 0.0, 0.0, 1.0, -0.45, -0.5)" width="33.05" xlink:href="#shape1"/>
    </g>
    <g id="shape1" transform="matrix(1.0, 0.0, 0.0, 1.0, 0.45, 0.5)">
      <path d="M27.35 7.4 Q24.95 2.85 20.2 0.8 17.55 -0.3 14.7 0.1 10.1 1.3 7.0 5.05 3.85 8.75 2.05 13.7 0.25 18.6 0.05 23.0 -0.2 27.4 2.35 31.35 4.8 35.25 9.45 36.85 14.1 38.4 19.1 37.8 24.05 36.95 27.85 33.75 31.7 30.6 32.05 25.65 32.35 20.85 30.9 16.15 29.5 11.55 27.35 7.4 Z" fill="none" stroke="#170001" stroke-linecap="round" stroke-linejoin="round" stroke-width="1.0"/>
    </g>
    <g id="shape2" transform="matrix(1.0, 0.0, 0.0, 1.0, 16.1, -3.45)">
      <path d="M-9.3 11.95 L-13.5 10.2 Q-14.1 7.5 -13.1 4.7 L-12.5 3.45 Q-8.05 5.1 -4.2 8.2 0.0 6.6 4.15 8.55 6.45 7.5 9.0 7.5 11.35 7.35 13.2 8.3 16.9 5.4 20.95 3.5 21.85 4.0 21.9 5.0 L22.05 6.85 Q22.35 8.95 22.1 10.9 12.35 13.55 2.0 13.5 L-3.3 13.2 Q-6.35 12.95 -9.3 11.95 M17.35 13.25 L17.95 12.8 Q18.25 12.55 18.6 12.35 L18.8 12.3 18.25 12.8 17.35 13.25 M17.05 23.4 Q13.25 25.1 8.9 25.2 4.05 25.65 -0.95 25.05 L-4.45 24.35 -5.1 21.9 Q-5.7 22.9 -6.55 23.6 -7.65 24.5 -9.1 24.05 -10.8 23.65 -12.05 22.4 L-12.1 22.35 -10.65 22.4 -9.35 23.05 Q-8.05 23.5 -7.05 22.75 L-5.8 21.3 -5.0 19.9 -3.7 23.55 Q2.8 25.0 9.5 24.15 L14.8 23.35 17.05 23.4 M21.35 6.25 L20.85 4.65 19.7 5.25 Q16.2 7.0 13.3 9.45 11.65 8.45 9.7 8.5 6.65 8.1 4.3 9.75 2.85 8.75 0.95 8.65 -1.85 8.25 -4.35 9.35 -7.85 6.45 -12.1 4.95 L-12.6 6.05 Q-13.2 7.65 -12.75 9.35 -9.1 11.5 -4.75 12.2 L3.3 12.75 12.9 12.05 21.2 10.45 21.35 6.25" fill="#30202d" fill-rule="evenodd" stroke="none"/>
      <path d="M-12.75 9.35 Q-13.2 7.65 -12.6 6.05 L-12.1 4.95 Q-7.85 6.45 -4.35 9.35 -1.85 8.25 0.95 8.65 2.85 8.75 4.3 9.75 6.65 8.1 9.7 8.5 11.65 8.45 13.3 9.45 16.2 7.0 19.7 5.25 L20.85 4.65 21.35 6.25 Q19.25 6.4 17.8 8.05 16.1 10.05 13.6 11.05 8.8 8.35 4.3 11.45 2.5 10.15 0.2 9.8 -2.1 9.75 -4.15 10.95 L-5.6 10.5 -7.1 9.35 Q-9.35 6.75 -12.6 6.3 L-12.75 9.35" fill="#d19dca" fill-rule="evenodd" stroke="none"/>
      <path d="M21.35 6.25 L21.2 10.45 12.9 12.05 3.3 12.75 -4.75 12.2 Q-9.1 11.5 -12.75 9.35 L-12.6 6.3 Q-9.35 6.75 -7.1 9.35 L-5.6 10.5 -4.15 10.95 Q-2.1 9.75 0.2 9.8 2.5 10.15 4.3 11.45 8.8 8.35 13.6 11.05 16.1 10.05 17.8 8.05 19.25 6.4 21.35 6.25 M9.5 24.15 L1.1 21.85 Q-2.75 20.65 -5.95 18.4 L-6.25 19.05 -6.85 17.45 -3.35 19.35 Q0.65 21.45 5.4 22.3 L14.8 23.35 9.5 24.15 M-6.65 19.7 L-9.35 23.05 -10.65 22.4 -9.35 22.1 -9.0 20.35 -6.65 19.7" fill="#8e3f87" fill-rule="evenodd" stroke="none"/>
      <path d="M-6.25 19.05 L-5.95 18.4 Q-2.75 20.65 1.1 21.85 L9.5 24.15 Q2.8 25.0 -3.7 23.55 L-5.0 19.9 -5.8 21.3 -7.05 22.75 Q-8.05 23.5 -9.35 23.05 L-6.65 19.7 -6.35 19.5 -6.25 19.05" fill="#b56ea8" fill-rule="evenodd" stroke="none"/>
      <path d="M-9.35 12.4 L-8.2 13.1 -6.4 13.7 Q-3.1 14.8 0.55 15.1 4.65 15.25 8.9 15.0 12.45 15.05 15.65 13.95 L16.15 13.8 17.35 13.25 18.25 12.8 18.8 12.3 19.6 12.25 19.7 12.45 19.45 15.65 21.2 16.05 Q21.35 18.65 20.1 20.95 L21.05 22.65 Q20.4 23.45 19.2 23.4 18.2 23.6 17.05 23.4 L14.8 23.35 5.4 22.3 Q0.65 21.45 -3.35 19.35 L-6.85 17.45 -6.25 19.05 -6.35 19.5 -6.65 19.7 -9.0 20.35 -9.35 22.1 -10.65 22.4 -12.1 22.35 Q-14.65 21.9 -15.95 19.7 L-16.05 19.45 -14.6 18.15 -16.1 16.6 Q-15.7 15.7 -14.8 15.25 -13.65 14.8 -12.7 13.9 L-11.65 12.85 Q-10.65 11.9 -9.35 12.4 M19.1 20.65 L20.2 17.35 Q20.2 16.8 19.65 16.4 19.1 16.0 18.35 16.0 L18.55 15.15 18.95 13.15 18.1 14.0 15.85 15.1 14.9 15.25 12.45 15.8 2.6 16.25 Q-1.9 16.2 -6.3 14.8 L-7.75 14.35 -7.3 15.85 -5.15 17.45 Q-1.25 20.1 3.2 21.05 L10.75 22.3 Q15.3 22.65 19.7 22.25 L19.1 21.6 19.1 20.65 M-10.15 13.15 L-10.85 13.25 Q-12.3 15.7 -14.85 16.75 L-14.1 17.35 -13.2 17.8 -14.8 19.55 -14.4 20.1 Q-12.8 22.05 -10.15 21.4 L-9.85 19.5 -8.55 19.35 -7.35 18.9 -8.8 13.75 -9.5 13.35 -10.15 13.15" fill="#49022e" fill-rule="evenodd" stroke="none"/>
      <path d="M19.1 21.6 L17.8 21.6 8.9 21.2 3.0 20.0 Q-1.9 18.95 -5.75 15.9 -2.45 17.75 1.2 18.8 5.65 20.1 10.25 20.7 L12.8 21.0 12.5 20.95 12.0 20.9 18.7 20.7 19.1 20.65 19.1 21.6 M20.2 17.35 Q17.5 18.7 14.5 19.1 10.6 19.65 6.55 19.15 -0.05 18.1 -6.3 15.25 -2.65 16.7 1.25 17.6 5.25 18.55 9.4 18.55 L12.3 18.3 12.05 18.4 14.0 18.65 Q16.8 18.55 18.25 16.2 L17.6 16.45 18.35 16.0 Q19.1 16.0 19.65 16.4 20.2 16.8 20.2 17.35 M18.55 15.15 Q14.85 16.95 10.8 17.25 L1.4 16.85 Q-3.4 16.3 -7.75 14.35 L-6.3 14.8 Q-1.9 16.2 2.6 16.25 L12.45 15.8 14.9 15.25 15.85 15.1 12.3 16.25 11.5 16.3 Q15.4 16.95 18.2 14.2 L18.85 13.55 18.1 14.0 18.95 13.15 18.55 15.15 M-10.15 21.4 Q-12.8 22.05 -14.4 20.1 L-14.8 19.55 -13.2 17.8 -14.1 17.35 -14.85 16.75 Q-12.3 15.7 -10.85 13.25 L-10.15 13.15 Q-10.95 15.0 -12.4 16.8 L-13.2 17.8 -12.4 17.35 -11.25 16.35 Q-10.25 15.2 -9.6 13.75 -9.85 16.2 -10.6 18.45 -11.15 20.15 -12.5 21.2 L-10.15 21.4 M-8.55 19.35 L-9.85 19.5 -9.5 13.35 -9.15 14.5 Q-8.45 16.9 -8.55 19.35 M-14.0 17.1 Q-12.35 16.5 -11.8 14.75 L-14.5 16.9 -14.0 17.1 M-13.9 20.1 L-11.35 16.75 -14.4 19.6 -13.9 20.1 M-9.5 19.3 L-8.9 19.1 -9.4 15.65 -9.5 19.3" fill="#ff6eba" fill-rule="evenodd" stroke="none"/>
      <path d="M19.1 20.65 L18.7 20.7 12.0 20.9 12.5 20.95 12.8 21.0 10.25 20.7 Q5.65 20.1 1.2 18.8 -2.45 17.75 -5.75 15.9 -1.9 18.95 3.0 20.0 L8.9 21.2 17.8 21.6 19.1 21.6 19.7 22.25 Q15.3 22.65 10.75 22.3 L3.2 21.05 Q-1.25 20.1 -5.15 17.45 L-7.3 15.85 -7.75 14.35 Q-3.4 16.3 1.4 16.85 L10.8 17.25 Q14.85 16.95 18.55 15.15 L18.35 16.0 17.6 16.45 12.3 18.3 9.4 18.55 Q5.25 18.55 1.25 17.6 -2.65 16.7 -6.3 15.25 -0.05 18.1 6.55 19.15 10.6 19.65 14.5 19.1 17.5 18.7 20.2 17.35 L19.1 20.65 M-10.15 13.15 L-9.5 13.35 -8.8 13.75 -7.35 18.9 -8.55 19.35 Q-8.45 16.9 -9.15 14.5 L-9.5 13.35 -9.85 19.5 -10.15 21.4 -12.5 21.2 Q-11.15 20.15 -10.6 18.45 -9.85 16.2 -9.6 13.75 -10.25 15.2 -11.25 16.35 L-12.4 17.35 -13.2 17.8 -12.4 16.8 Q-10.95 15.0 -10.15 13.15" fill="#c646b7" fill-rule="evenodd" stroke="none"/>
      <path d="M12.3 18.3 L17.6 16.45 18.25 16.2 Q16.8 18.55 14.0 18.65 L12.05 18.4 12.3 18.3 M18.1 14.0 L18.85 13.55 18.2 14.2 Q15.4 16.95 11.5 16.3 L12.3 16.25 15.85 15.1 18.1 14.0 M-13.9 20.1 L-14.4 19.6 -11.35 16.75 -13.9 20.1 M-14.0 17.1 L-14.5 16.9 -11.8 14.75 Q-12.35 16.5 -14.0 17.1 M-9.5 19.3 L-9.4 15.65 -8.9 19.1 -9.5 19.3" fill="#ffe6ff" fill-rule="evenodd" stroke="none"/>
      <path d="M-9.3 11.95 L-9.35 12.4" fill="none" stroke="#333333" stroke-linecap="round" stroke-linejoin="round" stroke-width="0.9500000000000001"/>
    </g>
  </defs>
</svg>
